images/portfolio__logo_image-1.svg

<svg width="316" height="203" viewBox="0 0 316 203" fill="none" xmlns="http://www.w3.org/2000/svg">
<path d="M67.6331 117.536H92.7508V80.2581L67.6331 117.536Z" fill="#F57D14"/>
<path d="M36.4615 79.657V117.536L92.7508 79.657H36.4615Z" fill="#ED451E"/>
<path d="M113.945 95.2198C115.086 95.2198 116.931 95.1519 118.016 94.6307C119.656 93.7306 120.179 92.3201 120.179 90.1792C120.179 87.8764 118.792 86.5136 117.628 85.9671C116.738 85.5172 115.589 85.3266 113.795 85.3266H108.546V95.2198H113.945ZM114.972 111.857C116.604 111.857 117.874 111.664 118.869 111.264C120.906 110.348 122.122 108.681 122.165 106.246C122.165 103.922 120.861 102.141 118.865 101.285C117.426 100.685 116.247 100.642 114.471 100.642H108.546V111.857H114.972V111.857ZM102.226 117.535V79.6567H115.357C120.466 79.6567 126.639 82.3516 126.639 89.4726C126.639 93.7263 124.649 96.4563 122.86 97.4736C127.674 99.3245 128.616 103.904 128.616 106.603C128.616 112.657 123.629 117.535 115.699 117.535L102.226 117.535ZM157.394 103.521V88.9866H151.178V103.521C151.178 108.69 148.536 112.025 144.399 112.025C140.274 112.025 137.632 108.69 137.632 103.521V88.9866H131.405V103.521C131.405 112.195 137.181 117.741 144.399 117.741C151.63 117.741 157.394 112.195 157.394 103.521ZM174.67 94.1117C170.198 94.1117 166.7 98.0662 166.7 103.126C166.7 108.035 170.264 112.019 174.67 112.019C179.039 112.019 182.733 107.951 182.733 103.126C182.733 98.1556 179.113 94.1117 174.67 94.1117V94.1117ZM174.67 117.741C166.717 117.741 160.47 111.384 160.47 103.072C160.47 94.7312 166.717 88.3452 174.67 88.3452C177.57 88.3452 180.495 89.3981 182.733 91.4232V79.6567H188.943V117.159H182.887V114.533C180.663 116.643 177.685 117.741 174.67 117.741V117.741ZM206.582 112.01C202.11 112.01 198.612 108.021 198.612 102.966C198.612 98.0528 202.178 94.0687 206.582 94.0687C210.951 94.0687 214.644 98.1367 214.644 102.966C214.644 107.931 211.024 112.01 206.582 112.01ZM214.798 88.9863V91.555C212.575 89.4454 209.597 88.345 206.582 88.345C198.629 88.345 192.394 94.7023 192.394 103.018C192.394 111.357 198.629 117.743 206.582 117.743C209.481 117.743 212.407 116.688 214.644 114.664C214.644 114.664 215.901 125.418 206.429 125.418C202.436 125.418 199.617 122.546 198.351 120.382C198.353 120.382 193.385 123.875 193.385 123.875C195.826 128.439 200.993 131.238 206.429 131.238C210.086 131.238 213.683 130.199 216.241 127.954C219.243 125.302 220.89 121.612 220.89 116.638V88.9866H214.798L214.798 88.9863ZM230.737 100.416C230.962 98.7302 233.004 94.0275 238.08 94.0275C243.003 94.0275 245.16 98.5846 245.353 100.416H230.737ZM247.865 92.333C245.272 89.6118 241.751 88.3464 238.072 88.3464C230.21 88.3464 224.154 94.8848 224.154 103.099C224.154 111.392 230.077 117.741 238.221 117.741C242.507 117.741 246.84 115.516 249.498 112.115L244.648 108.712C243.054 110.907 240.344 112.059 238.221 112.059C234.898 112.059 231.517 109.683 230.687 105.599H251.521C251.521 105.599 253.424 98.1731 247.865 92.333V92.333ZM265.739 112.052C262.58 112.052 261.112 110.511 261.112 107.189V94.4862H267.182V88.9866H261.112V81.117H254.901V107.189C254.901 113.789 258.678 117.741 264.761 117.741C266.029 117.741 267.285 117.558 267.285 117.558V111.975C266.505 112.042 266.064 112.053 265.739 112.053V112.052ZM275.422 84.8002C275.879 84.8002 276.406 84.6767 276.406 84.1299C276.406 83.6376 275.934 83.5138 275.509 83.5138H274.769V84.8002H275.422ZM273.961 82.8272H275.545C276.389 82.8272 277.218 83.18 277.218 84.1483C277.218 84.8002 276.813 85.2235 276.179 85.3639L277.391 87.336H276.406L275.352 85.4513H274.769V87.336H273.961V82.8272V82.8272ZM275.527 88.4828C277.391 88.4828 278.904 86.9486 278.904 85.0994C278.904 83.2327 277.391 81.718 275.527 81.718C273.664 81.718 272.148 83.2327 272.148 85.0994C272.148 86.9486 273.664 88.4828 275.527 88.4828ZM275.527 81.1013C277.743 81.1013 279.539 82.8805 279.539 85.0994C279.539 87.3182 277.743 89.0625 275.527 89.0625C273.311 89.0625 271.515 87.3182 271.515 85.0994C271.515 82.8805 273.311 81.101 275.527 81.101" fill="white"/>
</svg>

<svg width="316" height="203" fill="none" xmlns="http://www.w3.org/2000/svg"><path d="M67.633 117.536h25.118V80.258l-25.118 37.278z" fill="#F57D14"/><path d="M36.462 79.657v37.879L92.75 79.657H36.46z" fill="#ED451E"/><path d="M113.945 95.22c1.141 0 2.986-.068 4.071-.59 1.64-.9 2.163-2.31 2.163-4.45 0-2.304-1.387-3.666-2.551-4.213-.89-.45-2.039-.64-3.833-.64h-5.249v9.893h5.399zm1.027 16.637c1.632 0 2.902-.193 3.897-.593 2.037-.916 3.253-2.583 3.296-5.018 0-2.324-1.304-4.105-3.3-4.961-1.439-.6-2.618-.643-4.394-.643h-5.925v11.215h6.426zm-12.746 5.678V79.657h13.131c5.109 0 11.282 2.695 11.282 9.816 0 4.253-1.99 6.983-3.779 8 4.814 1.852 5.756 6.431 5.756 9.13 0 6.054-4.987 10.932-12.917 10.932h-13.473zm55.168-14.014V88.987h-6.216v14.534c0 5.169-2.642 8.504-6.779 8.504-4.125 0-6.767-3.335-6.767-8.504V88.987h-6.227v14.534c0 8.674 5.776 14.22 12.994 14.22 7.231 0 12.995-5.546 12.995-14.22zm17.276-9.41c-4.472 0-7.97 3.955-7.97 9.015 0 4.909 3.564 8.893 7.97 8.893 4.369 0 8.063-4.068 8.063-8.893 0-4.97-3.62-9.014-8.063-9.014zm0 23.63c-7.953 0-14.2-6.357-14.2-14.669 0-8.34 6.247-14.727 14.2-14.727 2.9 0 5.825 1.053 8.063 3.078V79.657h6.21v37.502h-6.056v-2.626c-2.224 2.11-5.202 3.208-8.217 3.208zm31.912-5.731c-4.472 0-7.97-3.989-7.97-9.044 0-4.913 3.566-8.897 7.97-8.897 4.369 0 8.062 4.068 8.062 8.897 0 4.965-3.62 9.044-8.062 9.044zm8.216-23.024v2.569c-2.223-2.11-5.201-3.21-8.216-3.21-7.953 0-14.188 6.357-14.188 14.673 0 8.339 6.235 14.725 14.188 14.725 2.899 0 5.825-1.055 8.062-3.079 0 0 1.257 10.754-8.215 10.754-3.993 0-6.812-2.872-8.078-5.036.002 0-4.966 3.493-4.966 3.493 2.441 4.564 7.608 7.363 13.044 7.363 3.657 0 7.254-1.039 9.812-3.284 3.002-2.652 4.649-6.342 4.649-11.316V88.987h-6.092zm15.939 11.43c.225-1.686 2.267-6.388 7.343-6.388 4.923 0 7.08 4.557 7.273 6.388h-14.616zm17.128-8.083c-2.593-2.721-6.114-3.987-9.793-3.987-7.862 0-13.918 6.539-13.918 14.753 0 8.293 5.923 14.642 14.067 14.642 4.286 0 8.619-2.225 11.277-5.626l-4.85-3.403c-1.594 2.195-4.304 3.347-6.427 3.347-3.323 0-6.704-2.376-7.534-6.46h20.834s1.903-7.426-3.656-13.266zm17.874 19.719c-3.159 0-4.627-1.541-4.627-4.863V94.486h6.07v-5.5h-6.07v-7.869h-6.211v26.072c0 6.6 3.777 10.552 9.86 10.552 1.268 0 2.524-.183 2.524-.183v-5.583c-.78.067-1.221.078-1.546.078v-.001zm9.683-27.252c.457 0 .984-.123.984-.67 0-.492-.472-.616-.897-.616h-.74V84.8h.653zm-1.461-1.973h1.584c.844 0 1.673.353 1.673 1.321 0 .652-.405 1.076-1.039 1.216l1.212 1.972h-.985l-1.054-1.885h-.583v1.885h-.808v-4.509zm1.566 5.656c1.864 0 3.377-1.534 3.377-3.384a3.38 3.38 0 00-3.377-3.381 3.383 3.383 0 00-3.379 3.381c0 1.85 1.516 3.384 3.379 3.384zm0-7.382a3.998 3.998 0 014.012 3.998c0 2.22-1.796 3.963-4.012 3.963-2.216 0-4.012-1.744-4.012-3.963a3.998 3.998 0 014.012-3.998" fill="#fff"/></svg>
